X: 408
P: Longways for as many as will
M: 6/4
L: 1/4
K: Bb
f |\
fga b2a | gfe d2b | abg ^fga | a3 g3 |\
fga bfg | fgd c2d | BBf fdg | c3 B2 |]

